X:834
T:Sean Phort Maith
R:Reel
B:The Athole Collection
M:C|
L:1/8
K:D
g|faef d/d/d fd|B2ed cAAg|faef d/d/d fd|B2BA d2d:|
|:A|FDAF G2BG|FDAF E=CCE|1 FDAF GABG|FDEC D2D:|2
FDAF GABg|fdec d2d||

